icons/Finance/currency-line.svg

<svg viewBox="0 0 24 24" xmlns="http://www.w3.org/2000/svg"><path d="M17.0047 16.0029H19.0047V4.00293H9.00468V6.00293H17.0047V16.0029ZM17.0047 18.0029V21.0021C17.0047 21.5548 16.5547 22.0029 15.9978 22.0029H4.01154C3.45548 22.0029 3.00488 21.5583 3.00488 21.0021L3.00748 7.0038C3.00759 6.45104 3.45752 6.00293 4.0143 6.00293H7.00468V3.00293C7.00468 2.45064 7.4524 2.00293 8.00468 2.00293H20.0047C20.557 2.00293 21.0047 2.45064 21.0047 3.00293V17.0029C21.0047 17.5552 20.557 18.0029 20.0047 18.0029H17.0047ZM5.0073 8.00293L5.00507 20.0029H15.0047V8.00293H5.0073ZM7.00468 16.0029H11.5047C11.7808 16.0029 12.0047 15.7791 12.0047 15.5029C12.0047 15.2268 11.7808 15.0029 11.5047 15.0029H8.50468C7.12397 15.0029 6.00468 13.8836 6.00468 12.5029C6.00468 11.1222 7.12397 10.0029 8.50468 10.0029H9.00468V9.00293H11.0047V10.0029H13.0047V12.0029H8.50468C8.22854 12.0029 8.00468 12.2268 8.00468 12.5029C8.00468 12.7791 8.22854 13.0029 8.50468 13.0029H11.5047C12.8854 13.0029 14.0047 14.1222 14.0047 15.5029C14.0047 16.8836 12.8854 18.0029 11.5047 18.0029H11.0047V19.0029H9.00468V18.0029H7.00468V16.0029Z"/></svg>

<svg xmlns="http://www.w3.org/2000/svg" viewBox="0 0 24 24">
    <g>
        <path fill="none" d="M0 0h24v24H0z"/>
        <path d="M17 16h2V4H9v2h8v10zm0 2v3c0 .552-.45 1-1.007 1H4.007A1.001 1.001 0 0 1 3 21l.003-14c0-.552.45-1 1.007-1H7V3a1 1 0 0 1 1-1h12a1 1 0 0 1 1 1v14a1 1 0 0 1-1 1h-3zM5.003 8L5 20h10V8H5.003zM7 16h4.5a.5.5 0 1 0 0-1h-3a2.5 2.5 0 1 1 0-5H9V9h2v1h2v2H8.5a.5.5 0 1 0 0 1h3a2.5 2.5 0 1 1 0 5H11v1H9v-1H7v-2z"/>
    </g>
</svg>
